src/img/icons/stars-8.svg

<svg width="72" height="12" viewBox="0 0 72 12" fill="none" xmlns="http://www.w3.org/2000/svg">
<path d="M6 0L7.34708 4.1459H11.7063L8.17963 6.7082L9.52671 10.8541L6 8.2918L2.47329 10.8541L3.82037 6.7082L0.293661 4.1459H4.65292L6 0Z" fill="#FFC632"/>
<path d="M21 0L22.3471 4.1459H26.7063L23.1796 6.7082L24.5267 10.8541L21 8.2918L17.4733 10.8541L18.8204 6.7082L15.2937 4.1459H19.6529L21 0Z" fill="#FFC632"/>
<path d="M36 0L37.3471 4.1459H41.7063L38.1796 6.7082L39.5267 10.8541L36 8.2918L32.4733 10.8541L33.8204 6.7082L30.2937 4.1459H34.6529L36 0Z" fill="#FFC632"/>
<path d="M51 0L52.3471 4.1459H56.7063L53.1796 6.7082L54.5267 10.8541L51 8.2918L47.4733 10.8541L48.8204 6.7082L45.2937 4.1459H49.6529L51 0Z" fill="#FFC632"/>
<path d="M66 0L67.3471 4.1459H71.7063L68.1796 6.7082L69.5267 10.8541L66 8.2918L62.4733 10.8541L63.8204 6.7082L60.2937 4.1459H64.6529L66 0Z" fill="#DEDEDE"/>
</svg>

<svg width="72" height="12" viewBox="0 0 72 12" fill="none" xmlns="http://www.w3.org/2000/svg"><path d="M6 0l1.347 4.146h4.36L8.18 6.708l1.347 4.146L6 8.292l-3.527 2.562L3.82 6.708.294 4.146h4.359L6 0zM21 0l1.347 4.146h4.36L23.18 6.708l1.347 4.146L21 8.292l-3.527 2.562 1.347-4.146-3.526-2.562h4.359L21 0zM36 0l1.347 4.146h4.36L38.18 6.708l1.347 4.146L36 8.292l-3.527 2.562 1.347-4.146-3.526-2.562h4.359L36 0zM51 0l1.347 4.146h4.36L53.18 6.708l1.347 4.146L51 8.292l-3.527 2.562 1.347-4.146-3.526-2.562h4.359L51 0z" fill="#FFC632"/><path d="M66 0l1.347 4.146h4.36L68.18 6.708l1.347 4.146L66 8.292l-3.527 2.562 1.347-4.146-3.526-2.562h4.359L66 0z" fill="#DEDEDE"/></svg>
